neru-dark-classic/22x22/panel/qtpass-tray.svg

<svg xmlns="http://www.w3.org/2000/svg" width="22" height="22" version="1.1">
 <defs>
  <style id="current-color-scheme" type="text/css">
   .ColorScheme-Text { color:#d3dae3; } .ColorScheme-Highlight { color:#5294e2; }
  </style>
 </defs>
 <path style="opacity:0.3;fill:currentColor" class="ColorScheme-Text" d="M 11,3 C 9.73334,3 8.64386,3.557 7.96914,4.4004 7.29442,5.24378 7,6.31482 7,7.4 L 7,14 9,14 9,7.4 C 9,6.68518 9.20558,6.05622 9.53086,5.6496 9.85614,5.243 10.26666,5 11,5 11.73334,5 12.14386,5.243 12.46914,5.6496 12.79442,6.05622 13,6.68518 13,7.4 l 0,6.6 2,0 0,-6.6 C 15,6.31482 14.70558,5.24378 14.03086,4.4004 13.35614,3.557 12.26666,3 11,3 Z"/>
 <path style="fill:currentColor" class="ColorScheme-Text" d="M 8.3587304,8.0039062 C 6.432929,7.9164502 5.1006098,9.4858356 5.0054502,11.185547 c -0.049403,0.882426 0.2347857,1.799905 0.9421955,2.539062 L 10.999999,19 16.052353,13.724609 c 0.707406,-0.739148 0.991594,-1.656622 0.942195,-2.539062 -0.09516,-1.6997002 -1.427479,-3.2691008 -3.35328,-3.1816408 -1.096126,0.04958 -2.092147,0.680055 -2.641269,1.671875 C 10.450874,8.6839527 9.4548471,8.0534854 8.3587304,8.0039062 Z M 10.001233,11 l 0.998766,0 0.998767,0 0,2 -0.477926,0 0.977309,2 -1.49815,0 -1.4981493,0 0.9773093,-2 -0.477926,0 0,-2 z"/>
</svg>

<svg xmlns="http://www.w3.org/2000/svg" width="22" height="22"><defs><style id="current-color-scheme" type="text/css">.ColorScheme-Text{color:#d3dae3}</style></defs><path class="ColorScheme-Text" d="M11 3c-1.267 0-2.356.557-3.03 1.4-.676.844-.97 1.915-.97 3V14h2V7.4c0-.715.206-1.344.53-1.75.326-.407.737-.65 1.47-.65s1.144.243 1.47.65c.324.406.53 1.035.53 1.75V14h2V7.4c0-1.085-.294-2.156-.97-3C13.357 3.557 12.268 3 11 3z" opacity=".3" fill="currentColor"/><path class="ColorScheme-Text" d="M8.359 8.004C6.433 7.916 5.1 9.486 5.005 11.186c-.049.882.235 1.8.943 2.539L11 19l5.052-5.275c.708-.74.992-1.657.943-2.54-.096-1.7-1.428-3.269-3.354-3.181-1.096.05-2.092.68-2.641 1.672-.55-.992-1.545-1.623-2.641-1.672zM10 11H12v2h-.478l.977 2H9.502l.977-2h-.478v-2z" fill="currentColor"/></svg>
